icon-themes/breeze_svg/cmd/32/polygon_unfilled.svg

<svg viewBox="0 0 32 32" xmlns="http://www.w3.org/2000/svg"><path d="m25 4-21 6 10 18h1.195312l-9.710937-17.384766 18.125-5.1796871-2.669922 10.6796871 5.943359 11.884766h1.117188l-6-12z" fill="#4d4d4d"/></svg>

<svg xmlns="http://www.w3.org/2000/svg" viewBox="0 0 32 32">
 <path 
     style="fill:#4d4d4d" 
     d="M 25 4 L 4 10 L 14 28 L 15.195312 28 L 5.484375 10.615234 L 23.609375 5.4355469 L 20.939453 16.115234 L 26.882812 28 L 28 28 L 22 16 L 25 4 z "
     />
</svg>
